!!!COM:	Bach, Johann Sebastian
!!!CDT:	1685/02/21/-1750/07/28/
!!!OTL@@DE:	Was Gott tut, das ist wohlgetan
!!!SCT:	BWV 250
!!!PC#:	347
!!!AGN:	chorale
**kern	**kern	**kern	**kern
*ICvox	*ICvox	*ICvox	*ICvox
*Ibass	*Itenor	*Ialto	*Isoprn
*I"Bass	*I"Tenor	*I"Alto	*I"Soprano
*>[A,A,B]	*>[A,A,B]	*>[A,A,B]	*>[A,A,B]
*>norep[A,B]	*>norep[A,B]	*>norep[A,B]	*>norep[A,B]
*>A	*>A	*>A	*>A
*clefF4	*clefGv2	*clefG2	*clefG2
*k[f#]	*k[f#]	*k[f#]	*k[f#]
*G:	*G:	*G:	*G:
*M4/4	*M4/4	*M4/4	*M4/4
*met(c)	*met(c)	*met(c)	*met(c)
*MM100	*MM100	*MM100	*MM100
4GG	8GL	8BL	4d
.	8AJ	8cJ	.
=1	=1	=1	=1
4G	4B	4d	4g
4F#	4A	4d	4a
8EL	4e	4g	4b
8DJ	.	.	.
4C	8eL	4g	8ccL
.	8cJ	.	16ddL
.	.	.	16eeJJ
=2	=2	=2	=2
4D	8BL	8gL	4dd
.	8GJ	8eJ	.
4D	4A	4f#	8ccL
.	.	.	8bJ
4GG;	4G;	4d;	4b;
4C	4G	8cL	4ee
.	.	8BJ	.
=3	=3	=3	=3
4D	4F#	4A	4dd
8EL	8GL	4e	4cc
8F#J	8AJ	.	.
4G	8BL	4d	4b
.	8AJ	.	.
4C	4G	4e	16aLL
.	.	.	16bJ
.	.	.	8ccJ
=4	=4	=4	=4
4D	4G	2d	4b
4DD	4F#	.	8aL
.	.	.	8gJ
4GG;	4B;	4d;	4g;
=:|!	=:|!	=:|!	=:|!
*>B	*>B	*>B	*>B
4G	4B	4g	4dd
=5	=5	=5	=5
4C	8cL	4g	4ee
.	8BJ	.	.
4C#	4A	8aL	4ee
.	.	8gJ	.
4D;	4d;	4f#;	4a;
8DL	4d	4f#	4a
8CJ	.	.	.
=6	=6	=6	=6
8BBL	8dL	8gL	4dd
8AAJ	8cJ	8aJ	.
4BB	4d	8gL	4dd
.	.	8fJ	.
4C;	4c;	4e;	4g;
4GG	4d	4g	4b
=7	=7	=7	=7
4.D	8dL	8gL	4a
.	8AJ	8f#XJ	.
.	8BL	4e	4g
8C#	8AJ	.	.
8DL	4A	8eL	4f#
8F#J	.	8dJ	.
8BBL	8GL	4d	8gL
8AAJ	8AJ	.	8f#J
=8	=8	=8	=8
8GGL	4B	4d	2e
8EEJ	.	.	.
4AA	8AL	4c#	.
.	8GJ	.	.
4D;	4F#;	4A;	4d;
4BB	4f#	8BL	4dd
.	.	8AJ	.
=9	=9	=9	=9
8EL	4e	8GL	4cc
8F#J	.	8AJ	.
[4G	8dL	8BL	4b
.	8eJ	8cnXJ	.
8GL]	4A	4d	4a
8F#J	.	.	.
8GL	4G	8dL	8bL
8EJ	.	8eJ	8ccJ
=10	=10	=10	=10
8CL	4G	4e	2a
8AAJ	.	.	.
4D	4F#	4d	.
4GG;	4B;	4d;	4g;
==	==	==	==
*-	*-	*-	*-
!!!hum2abc: -Q ''
!!!title: @{PC#}. @{OTL@@DE}
!!!YOR1: 371 vierstimmige Choralges&auml;nge von Johann Sebastian Bach, 
!!!YOR2: 4th ed. by Alfred D&ouml;rffel (Leipzig: Breitkopf und H&auml;rtel, 
!!!YOR2: c.1875). 178 pp. Plate "V.A.10".  reprint: J.S. Bach, 371 Four-Part 
!!!YOR4: Chorales (New York: Associated Music Publishers, Inc., c.1940).
!!!SMS: B&H, 4th ed, Alfred D&ouml;rffel, c.1875, plate V.A.10
!!!EED:  Craig Stuart Sapp
!!!EEV:  2009/05/22
